ix/hashtag-1_bold.svg

<svg viewBox="0 0 24 24" fill="none" xmlns="http://www.w3.org/2000/svg" height="1em" width="1em">
  <path d="M8.05078 10.1408V11.3008H11.3108V8.05078H10.1508C8.99078 8.05078 8.05078 8.99078 8.05078 10.1408Z" fill="#292D32"/>
  <path d="M8.05078 13.8592C8.05078 15.0092 8.99078 15.9492 10.1408 15.9492H11.3008V12.6992H8.05078V13.8592Z" fill="#292D32"/>
  <path d="M12.6992 15.9492H13.8592C15.0092 15.9492 15.9492 15.0092 15.9492 13.8592V12.6992H12.6992V15.9492Z" fill="#292D32"/>
  <path d="M16.19 2H7.81C4.17 2 2 4.17 2 7.81V16.18C2 19.83 4.17 22 7.81 22H16.18C19.82 22 21.99 19.83 21.99 16.19V7.81C22 4.17 19.83 2 16.19 2ZM17.35 13.86C17.35 15.78 15.78 17.35 13.86 17.35H10.14C8.22 17.35 6.65 15.79 6.65 13.86V10.14C6.65 8.22 8.22 6.65 10.14 6.65H13.86C15.78 6.65 17.35 8.21 17.35 10.14V13.86Z" fill="#292D32"/>
  <path d="M13.8592 8.05078H12.6992V11.3108H15.9592V10.1508C15.9492 8.99078 15.0092 8.05078 13.8592 8.05078Z" fill="#292D32"/>
</svg>

<svg viewBox="0 0 24 24" fill="none" xmlns="http://www.w3.org/2000/svg" height="1em" width="1em">
  <path d="M8.05 10.14v1.16h3.26V8.05h-1.16c-1.16 0-2.1.94-2.1 2.09Zm0 3.72c0 1.15.94 2.09 2.09 2.09h1.16V12.7H8.05v1.16Zm4.65 2.09h1.16c1.15 0 2.09-.94 2.09-2.09V12.7H12.7v3.25Z" fill="#292D32"/>
  <path d="M16.19 2H7.81C4.17 2 2 4.17 2 7.81v8.37C2 19.83 4.17 22 7.81 22h8.37c3.64 0 5.81-2.17 5.81-5.81V7.81C22 4.17 19.83 2 16.19 2Zm1.16 11.86a3.5 3.5 0 0 1-3.49 3.49h-3.72c-1.92 0-3.49-1.56-3.49-3.49v-3.72a3.5 3.5 0 0 1 3.49-3.49h3.72c1.92 0 3.49 1.56 3.49 3.49v3.72Z" fill="#292D32"/>
  <path d="M13.86 8.05H12.7v3.26h3.26v-1.16c-.01-1.16-.95-2.1-2.1-2.1Z" fill="#292D32"/>
</svg>
